images/icon-terminal.svg

<?xml version="1.0" encoding="UTF-8"?>
<svg width="12px" height="12px" viewBox="0 0 12 12" version="1.1" xmlns="http://www.w3.org/2000/svg" xmlns:xlink="http://www.w3.org/1999/xlink">
    <!-- Generator: Sketch 58 (84663) - https://sketch.com -->
    <title>Mask</title>
    <desc>Created with Sketch.</desc>
    <defs>
        <path d="M3.8458278,0 L8.1541722,0 C9.49145031,0 9.97637967,0.139238417 10.4652686,0.400699056 C10.9541574,0.662159695 11.3378403,1.04584256 11.5993009,1.53473144 C11.8607616,2.02362033 12,2.50854969 12,3.8458278 L12,8.1541722 C12,9.49145031 11.8607616,9.97637967 11.5993009,10.4652686 C11.3378403,10.9541574 10.9541574,11.3378403 10.4652686,11.5993009 C9.97637967,11.8607616 9.49145031,12 8.1541722,12 L3.8458278,12 C2.50854969,12 2.02362033,11.8607616 1.53473144,11.5993009 C1.04584256,11.3378403 0.662159695,10.9541574 0.400699056,10.4652686 C0.139238417,9.97637967 0,9.49145031 0,8.1541722 L0,3.8458278 C0,2.50854969 0.139238417,2.02362033 0.400699056,1.53473144 C0.662159695,1.04584256 1.04584256,0.662159695 1.53473144,0.400699056 C2.02362033,0.139238417 2.50854969,0 3.8458278,0 Z M6.75,8.25 C6.33578644,8.25 6,8.58578644 6,9 C6,9.41421356 6.33578644,9.75 6.75,9.75 L9,9.75 C9.41421356,9.75 9.75,9.41421356 9.75,9 C9.75,8.58578644 9.41421356,8.25 9,8.25 L6.75,8.25 Z M6,6.74804857 C6.00049546,6.55545688 5.92727299,6.36270996 5.78033009,6.21576705 C5.76489551,6.20033247 5.74895558,6.18571125 5.73256356,6.17190339 L3.52642722,3.96576705 C3.233534,3.67287383 2.75866027,3.67287383 2.46576705,3.96576705 C2.17287383,4.25866027 2.17287383,4.733534 2.46576705,5.02642722 L4.1873884,6.74804857 L2.46576705,8.46966991 C2.17287383,8.76256313 2.17287383,9.23743687 2.46576705,9.53033009 C2.75866027,9.8232233 3.233534,9.8232233 3.52642722,9.53033009 L5.73256356,7.32419375 C5.74895558,7.31038588 5.76489551,7.29576466 5.78033009,7.28033009 C5.92727299,7.13338718 6.00049546,6.94064026 6,6.74804857 L6,6.74804857 Z" id="path-1"></path>
    </defs>
    <g id="Overviews" stroke="none" stroke-width="1" fill="none" fill-rule="evenodd">
        <g id="Home" transform="translate(-1215.000000, -223.000000)">
            <g id="Icon/api" transform="translate(1215.000000, 223.000000)">
                <mask id="mask-2" fill="white">
                    <use xlink:href="#path-1"></use>
                </mask>
                <use id="Mask" fill="#8792A2" xlink:href="#path-1"></use>
            </g>
        </g>
    </g>
</svg>

<svg width="12" height="12" xmlns="http://www.w3.org/2000/svg" xmlns:xlink="http://www.w3.org/1999/xlink"><defs><path d="M3.846 0h4.308c1.337 0 1.822.14 2.311.4.49.262.873.646 1.134 1.135.262.489.401.974.401 2.31v4.31c0 1.336-.14 1.821-.4 2.31a2.726 2.726 0 01-1.135 1.134c-.489.262-.974.401-2.31.401h-4.31c-1.336 0-1.821-.14-2.31-.4A2.726 2.726 0 01.4 10.464C.139 9.976 0 9.491 0 8.155v-4.31c0-1.336.14-1.821.4-2.31A2.726 2.726 0 011.536.4C2.024.139 2.509 0 3.845 0zM6.75 8.25a.75.75 0 000 1.5H9a.75.75 0 000-1.5H6.75zM6 6.748a.748.748 0 00-.267-.576L3.526 3.966a.75.75 0 10-1.06 1.06l1.721 1.722L2.466 8.47a.75.75 0 001.06 1.06l2.207-2.206A.748.748 0 006 6.748z" id="a"/></defs><use fill="#8792A2" xlink:href="#a" fill-rule="evenodd"/></svg>
